src/icons/logos/tailwindcss.svg

<svg width="902" height="220" viewBox="0 0 902 220" fill="none" xmlns="http://www.w3.org/2000/svg">
<g clip-path="url(#clip0_638_492)">
<path fill-rule="evenodd" clip-rule="evenodd" d="M92.3469 53.242C67.5964 53.242 52.1315 65.5988 45.9411 90.3125C55.223 77.9557 66.0506 73.3228 78.424 76.4101C85.4837 78.1712 90.5319 83.2864 96.1149 88.9497C105.215 98.1716 115.748 108.844 138.749 108.844C163.496 108.844 178.964 96.4873 185.151 71.7772C175.873 84.1341 165.045 88.767 152.672 85.6759C145.609 83.9149 140.56 78.7997 134.977 73.1401C125.877 63.9108 115.348 53.242 92.3469 53.242ZM45.9411 108.844C21.1943 108.844 5.72576 121.201 -0.460938 145.915C8.82093 133.558 19.6486 128.925 32.0183 132.012C39.0816 133.773 44.1299 138.888 49.7128 144.552C58.8128 153.774 69.3422 164.446 92.3469 164.446C117.094 164.446 132.562 152.093 138.749 127.379C129.467 139.736 118.639 144.369 106.266 141.282C99.2064 139.517 94.1581 134.402 88.5752 128.742C79.4752 119.52 68.9421 108.844 45.9411 108.844V108.844Z" fill="currentColor"/>
<path fill-rule="evenodd" clip-rule="evenodd" d="M277.945 100.101H261.749V131.402C261.749 139.751 267.234 139.619 277.945 139.097V151.75C256.261 154.358 247.641 148.359 247.641 131.402V100.101H235.624V86.5345H247.641V69.0187L261.749 64.8425V86.5345H277.945V100.101ZM339.681 86.5345H353.786V151.75H339.681V142.359C334.717 149.269 327.01 153.445 316.822 153.445C299.059 153.445 284.299 138.446 284.299 119.14C284.299 99.7098 299.059 84.8392 316.822 84.8392C327.01 84.8392 334.717 89.0118 339.681 95.7967V86.5345V86.5345ZM319.044 140.01C330.8 140.01 339.681 131.27 339.681 119.14C339.681 107.01 330.8 98.2739 319.044 98.2739C307.289 98.2739 298.408 107.014 298.408 119.14C298.408 131.27 307.289 140.01 319.044 140.01ZM377.296 76.7536C372.335 76.7536 368.287 72.581 368.287 67.7545C368.299 65.3625 369.253 63.0725 370.942 61.3859C372.63 59.6993 374.915 58.7535 377.296 58.7554C379.678 58.7525 381.964 59.6979 383.653 61.3846C385.342 63.0714 386.297 65.3619 386.309 67.7545C386.309 72.5774 382.261 76.7536 377.296 76.7536ZM370.244 151.75V86.5345H384.352V151.75H370.244ZM400.679 151.75V56.5303H414.784V151.746H400.679V151.75ZM506.348 86.5345H521.238L500.732 151.75H486.886L473.301 107.795L459.586 151.75H445.743L425.233 86.5345H440.123L452.795 131.53L466.511 86.5345H479.964L493.545 131.53L506.348 86.5345V86.5345ZM538.74 76.7536C533.775 76.7536 529.727 72.581 529.727 67.7545C529.738 65.3619 530.693 63.0714 532.383 61.3846C534.072 59.6979 536.358 58.7525 538.74 58.7554C541.121 58.7525 543.407 59.6979 545.097 61.3846C546.786 63.0714 547.741 65.3619 547.752 67.7545C547.752 72.5774 543.704 76.7536 538.74 76.7536ZM531.687 151.75V86.5345H545.792V151.75H531.687V151.75ZM596.471 84.8392C611.1 84.8392 621.549 94.7517 621.549 111.709V151.746H607.444V113.141C607.444 103.228 601.698 98.0145 592.816 98.0145C583.541 98.0145 576.227 103.491 576.227 116.795V151.75H562.119V86.5345H576.227V94.8833C580.537 88.102 587.589 84.8392 596.471 84.8392V84.8392ZM688.424 60.4507H702.533V151.746H688.424V142.356C683.463 149.269 675.756 153.441 665.569 153.441C647.805 153.441 633.046 138.443 633.046 119.137C633.046 99.7061 647.805 84.8356 665.569 84.8356C675.756 84.8356 683.463 89.0081 688.424 95.793V60.4507V60.4507ZM667.787 140.01C679.543 140.01 688.424 131.27 688.424 119.14C688.424 107.01 679.543 98.2739 667.787 98.2739C656.032 98.2739 647.151 107.014 647.151 119.14C647.151 131.27 656.032 140.01 667.787 140.01ZM749.815 153.445C730.091 153.445 715.332 138.446 715.332 119.14C715.332 99.7098 730.091 84.8392 749.815 84.8392C762.614 84.8392 773.718 91.489 778.941 101.665L766.793 108.709C763.92 102.578 757.522 98.6648 749.684 98.6648C738.191 98.6648 729.44 107.404 729.44 119.14C729.44 130.88 738.191 139.619 749.684 139.619C757.522 139.619 763.92 135.575 767.055 129.575L779.203 136.488C773.718 146.791 762.614 153.441 749.815 153.441V153.445ZM802.451 104.533C802.451 116.404 837.589 109.228 837.589 133.36C837.589 146.404 826.223 153.445 812.118 153.445C799.058 153.445 789.652 147.573 785.473 138.183L797.621 131.143C799.709 137.01 804.935 140.533 812.118 140.533C818.389 140.533 823.219 138.446 823.219 133.225C823.219 121.621 788.084 128.143 788.084 104.796C788.084 92.5339 798.665 84.8392 811.987 84.8392C822.699 84.8392 831.58 89.7973 836.152 98.4054L824.266 105.055C821.913 99.9692 817.341 97.6199 811.987 97.6199C806.892 97.6199 802.451 99.8377 802.451 104.533V104.533ZM862.667 104.533C862.667 116.404 897.801 109.228 897.801 133.36C897.801 146.404 886.439 153.445 872.33 153.445C859.27 153.445 849.868 147.573 845.685 138.183L857.833 131.143C859.924 137.01 865.147 140.533 872.33 140.533C878.601 140.533 883.435 138.446 883.435 133.225C883.435 121.621 848.3 128.143 848.3 104.796C848.3 92.5339 858.877 84.8392 872.203 84.8392C882.911 84.8392 891.793 89.7973 896.364 98.4054L884.478 105.055C882.129 99.9692 877.557 97.6199 872.203 97.6199C867.108 97.6199 862.667 99.8377 862.667 104.533V104.533Z" fill="currentColor"/>
</g>
<defs>
<clipPath id="clip0_638_492">
<rect width="902" height="220" fill="white"/>
</clipPath>
</defs>
</svg>

<svg xmlns="http://www.w3.org/2000/svg" width="902" height="220" fill="none">
    <g fill="currentColor" fill-rule="evenodd" clip-path="url(#a)" clip-rule="evenodd">
        <path
            d="M92.347 53.242c-24.75 0-40.215 12.357-46.406 37.07 9.282-12.356 20.11-16.99 32.483-13.902 7.06 1.761 12.108 6.876 17.69 12.54 9.101 9.222 19.634 19.894 42.635 19.894 24.747 0 40.215-12.357 46.402-37.067-9.278 12.357-20.106 16.99-32.479 13.899-7.063-1.761-12.112-6.876-17.695-12.536-9.1-9.23-19.629-19.898-42.63-19.898ZM45.94 108.844c-24.747 0-40.215 12.357-46.402 37.071 9.282-12.357 20.11-16.99 32.48-13.903 7.063 1.761 12.11 6.876 17.694 12.54 9.1 9.222 19.63 19.894 42.634 19.894 24.747 0 40.215-12.353 46.402-37.067-9.282 12.357-20.11 16.99-32.483 13.903-7.06-1.765-12.108-6.88-17.69-12.54-9.1-9.222-19.634-19.898-42.635-19.898ZM277.945 100.101h-16.196v31.301c0 8.349 5.485 8.217 16.196 7.695v12.653c-21.684 2.608-30.304-3.391-30.304-20.348v-31.301h-12.017V86.534h12.017V69.02l14.108-4.177v21.692h16.196v13.567Zm61.736-13.567h14.105v65.216h-14.105v-9.391c-4.964 6.91-12.671 11.086-22.859 11.086-17.763 0-32.523-14.999-32.523-34.305 0-19.43 14.76-34.3 32.523-34.3 10.188 0 17.895 4.172 22.859 10.957v-9.263Zm-20.637 53.476c11.756 0 20.637-8.74 20.637-20.87s-8.881-20.866-20.637-20.866c-11.755 0-20.636 8.74-20.636 20.866 0 12.13 8.881 20.87 20.636 20.87Zm58.252-63.256c-4.961 0-9.009-4.173-9.009-9a9.064 9.064 0 0 1 2.655-6.368 8.98 8.98 0 0 1 6.354-2.63 8.98 8.98 0 0 1 6.357 2.629 9.067 9.067 0 0 1 2.656 6.37c0 4.822-4.048 8.999-9.013 8.999Zm-7.052 74.996V86.534h14.108v65.216h-14.108Zm30.435 0V56.53h14.105v95.216h-14.105v.004Zm105.669-65.216h14.89l-20.506 65.216h-13.846l-13.585-43.955-13.715 43.955h-13.843l-20.51-65.216h14.89l12.672 44.996 13.716-44.996h13.453l13.581 44.996 12.803-44.996Zm32.392-9.78c-4.965 0-9.013-4.173-9.013-9a9.059 9.059 0 0 1 2.656-6.37 8.98 8.98 0 0 1 6.357-2.629 8.984 8.984 0 0 1 6.357 2.63 9.062 9.062 0 0 1 2.655 6.37c0 4.822-4.048 8.999-9.012 8.999Zm-7.053 74.996V86.534h14.105v65.216h-14.105Zm64.784-66.91c14.629 0 25.078 9.912 25.078 26.869v40.037h-14.105v-38.605c0-9.913-5.746-15.127-14.628-15.127-9.275 0-16.589 5.477-16.589 18.781v34.955h-14.108V86.534h14.108v8.35c4.31-6.782 11.362-10.045 20.244-10.045Zm91.953-24.39h14.109v91.296h-14.109v-9.39c-4.961 6.913-12.668 11.085-22.855 11.085-17.764 0-32.523-14.998-32.523-34.304 0-19.43 14.759-34.301 32.523-34.301 10.187 0 17.894 4.172 22.855 10.957V60.451Zm-20.637 79.56c11.756 0 20.637-8.74 20.637-20.87s-8.881-20.866-20.637-20.866c-11.755 0-20.636 8.74-20.636 20.866 0 12.13 8.881 20.87 20.636 20.87Zm82.028 13.435c-19.724 0-34.483-14.999-34.483-34.305 0-19.43 14.759-34.3 34.483-34.3 12.799 0 23.903 6.649 29.126 16.825l-12.148 7.044c-2.873-6.131-9.271-10.044-17.109-10.044-11.493 0-20.244 8.739-20.244 20.475 0 11.74 8.751 20.479 20.244 20.479 7.838 0 14.236-4.044 17.371-10.044l12.148 6.913c-5.485 10.303-16.589 16.953-29.388 16.953v.004Zm52.636-48.912c0 11.871 35.138 4.695 35.138 28.827 0 13.044-11.366 20.085-25.471 20.085-13.06 0-22.466-5.872-26.645-15.262l12.148-7.04c2.088 5.867 7.314 9.39 14.497 9.39 6.271 0 11.101-2.087 11.101-7.308 0-11.604-35.135-5.082-35.135-28.429 0-12.262 10.581-19.957 23.903-19.957 10.712 0 19.593 4.958 24.165 13.566l-11.886 6.65c-2.353-5.086-6.925-7.435-12.279-7.435-5.095 0-9.536 2.218-9.536 6.913Zm60.216 0c0 11.871 35.134 4.695 35.134 28.827 0 13.044-11.362 20.085-25.471 20.085-13.06 0-22.462-5.872-26.645-15.262l12.148-7.04c2.091 5.867 7.314 9.39 14.497 9.39 6.271 0 11.105-2.087 11.105-7.308 0-11.604-35.135-5.082-35.135-28.429 0-12.262 10.577-19.957 23.903-19.957 10.708 0 19.59 4.958 24.161 13.566l-11.886 6.65c-2.349-5.086-6.921-7.435-12.275-7.435-5.095 0-9.536 2.218-9.536 6.913Z" />
    </g>
    <defs>
        <clipPath id="a">
            <path fill="#fff" d="M0 0h902v220H0z" />
        </clipPath>
    </defs>
</svg>
